assets/images/Location/boat.svg

<svg width="40" height="40" viewBox="0 0 40 40" fill="none" xmlns="http://www.w3.org/2000/svg">
<path fill-rule="evenodd" clip-rule="evenodd" d="M28.8212 17.7401C29.2682 18.4106 29.2682 19.3046 28.8212 19.9752C28.486 20.6457 27.7037 21.0927 26.9214 21.0927H17.6457V7.2351C17.6457 6.0058 18.6515 5 19.8808 5C20.6631 5 21.3336 5.44702 21.7807 6.11755L28.8212 17.7401ZM26.9214 18.9694L19.7691 7.2351V18.9694H26.9214ZM9.71109 21.0924H16.5281V12.3755C16.5281 11.705 16.1929 11.0345 15.6341 10.5874C14.6283 9.80516 13.1755 10.0287 12.505 11.0345L7.92301 17.628C7.47599 18.2985 7.47599 19.1926 7.81126 19.9749C8.14652 20.6454 8.92881 21.0924 9.71109 21.0924ZM14.4048 12.3755L14.293 18.8573H9.71109L14.4048 12.3755ZM7.69952 24.4452C7.02899 24.4452 6.47021 24.8923 6.47021 25.5628V27.9097L6.4702 27.9097C5.68792 28.2449 4.90564 28.5802 4.34687 29.139V25.5628C4.34687 23.663 5.79968 22.2101 7.69952 22.2101H35.6383C36.197 22.2101 36.6441 22.4337 37.0911 22.6572C37.9851 23.4395 38.0969 24.8923 37.3146 25.7863L37.0911 26.0098L34.2972 28.4684C33.6267 28.1332 32.7326 27.9097 31.8386 27.9097H31.6151L35.5265 24.4452H7.69952ZM28.8212 31.374C29.827 30.48 31.0563 30.033 32.2856 30.1447C33.6267 30.1447 34.856 30.5918 35.8618 31.374C35.9705 31.461 36.0666 31.548 36.159 31.6317C36.5414 31.9781 36.8615 32.2681 37.7616 32.2681V34.5032C36.5323 34.3914 35.4148 33.9444 34.409 33.1621C33.8502 32.6033 33.0679 32.2681 32.2856 32.2681C31.5033 32.2681 30.6093 32.6033 30.0505 33.1621C27.9272 34.9502 24.9098 34.9502 22.7864 33.1621C22.1159 32.6033 21.3336 32.2681 20.5513 32.2681C19.6573 32.2681 18.875 32.6033 18.2045 33.1621C16.0811 34.9502 12.952 34.9502 10.9404 33.1621C10.2699 32.6033 9.37585 32.2681 8.59356 32.2681C7.69952 32.2681 6.69373 32.6033 6.0232 33.1621C4.90565 34.1679 3.45283 34.6149 2.00002 34.5032V32.2681C2.89406 32.2681 3.89985 31.9328 4.57038 31.374C5.68793 30.48 7.02899 30.033 8.37005 30.033C9.71111 30.033 11.0522 30.48 12.1697 31.374C12.8403 31.9328 13.6225 32.2681 14.5166 32.2681C15.4106 32.2681 16.1929 31.9328 16.8634 31.374C17.8692 30.48 19.2103 30.033 20.5513 30.1447C21.8924 30.1447 23.1217 30.5918 24.2393 31.374C25.5803 32.6033 27.5919 32.6033 28.8212 31.374Z" fill="#010107"/>
</svg>

<svg xmlns="http://www.w3.org/2000/svg" width="40" height="40" fill="none" viewBox="0 0 40 40"><path fill="#010107" fill-rule="evenodd" d="M28.821 17.74a2.03 2.03 0 0 1 0 2.235c-.335.67-1.117 1.118-1.9 1.118h-9.275V7.235A2.242 2.242 0 0 1 19.88 5c.782 0 1.453.447 1.9 1.118l7.04 11.622zm-1.9 1.23L19.77 7.234V18.97h7.152zm-17.21 2.122h6.817v-8.716c0-.671-.335-1.341-.894-1.789-1.006-.782-2.459-.558-3.129.447l-4.582 6.594c-.447.67-.447 1.565-.112 2.347.336.67 1.118 1.117 1.9 1.117zm4.694-8.716l-.112 6.481H9.711l4.694-6.481zM7.7 24.446c-.671 0-1.23.446-1.23 1.117v2.347c-.782.335-1.564.67-2.123 1.229v-3.576c0-1.9 1.453-3.353 3.353-3.353h27.938c.559 0 1.006.224 1.453.447.894.782 1.006 2.235.224 3.13l-.224.223-2.794 2.458c-.67-.335-1.564-.558-2.458-.558h-.224l3.912-3.465H7.7zm21.121 6.928c1.006-.894 2.235-1.341 3.465-1.23 1.34 0 2.57.448 3.576 1.23.108.087.205.174.297.258.382.346.703.636 1.603.636v2.235c-1.23-.112-2.347-.559-3.353-1.34a3.053 3.053 0 0 0-2.123-.895c-.783 0-1.677.335-2.236.894a5.589 5.589 0 0 1-7.264 0c-.67-.559-1.452-.894-2.235-.894-.894 0-1.676.335-2.346.894-2.124 1.788-5.253 1.788-7.265 0-.67-.559-1.564-.894-2.346-.894-.894 0-1.9.335-2.57.894C4.905 34.168 3.452 34.615 2 34.503v-2.235c.894 0 1.9-.335 2.57-.894a6.07 6.07 0 0 1 3.8-1.341 6.07 6.07 0 0 1 3.8 1.341c.67.559 1.453.894 2.347.894.894 0 1.676-.335 2.346-.894a4.95 4.95 0 0 1 3.688-1.23c1.341 0 2.57.448 3.688 1.23 1.341 1.23 3.353 1.23 4.582 0z" clip-rule="evenodd"/></svg>
